images/11949103.svg

<?xml version="1.0" encoding="UTF-8"?>
<svg xmlns="http://www.w3.org/2000/svg" xmlns:xlink="http://www.w3.org/1999/xlink" width="300pt" height="300pt" viewBox="0 0 300 300" version="1.1">
<defs>
<g>
<symbol overflow="visible" id="glyph0-0">
<path style="stroke:none;" d="M 0.546875 1.9375 L 0.546875 -7.75 L 6.046875 -7.75 L 6.046875 1.9375 Z M 1.171875 1.328125 L 5.4375 1.328125 L 5.4375 -7.140625 L 1.171875 -7.140625 Z M 1.171875 1.328125 "/>
</symbol>
<symbol overflow="visible" id="glyph0-1">
<path style="stroke:none;" d="M 4.328125 -7.28125 C 3.546875 -7.28125 2.921875 -6.984375 2.453125 -6.390625 C 1.992188 -5.804688 1.765625 -5.007812 1.765625 -4 C 1.765625 -2.988281 1.992188 -2.1875 2.453125 -1.59375 C 2.921875 -1.007812 3.546875 -0.71875 4.328125 -0.71875 C 5.117188 -0.71875 5.742188 -1.007812 6.203125 -1.59375 C 6.660156 -2.1875 6.890625 -2.988281 6.890625 -4 C 6.890625 -5.007812 6.660156 -5.804688 6.203125 -6.390625 C 5.742188 -6.984375 5.117188 -7.28125 4.328125 -7.28125 Z M 4.328125 -8.171875 C 5.453125 -8.171875 6.351562 -7.789062 7.03125 -7.03125 C 7.707031 -6.28125 8.046875 -5.269531 8.046875 -4 C 8.046875 -2.738281 7.707031 -1.726562 7.03125 -0.96875 C 6.351562 -0.21875 5.453125 0.15625 4.328125 0.15625 C 3.203125 0.15625 2.300781 -0.21875 1.625 -0.96875 C 0.957031 -1.71875 0.625 -2.726562 0.625 -4 C 0.625 -5.269531 0.957031 -6.28125 1.625 -7.03125 C 2.300781 -7.789062 3.203125 -8.171875 4.328125 -8.171875 Z M 4.328125 -8.171875 "/>
</symbol>
<symbol overflow="visible" id="glyph0-2">
<path style="stroke:none;" d="M 1.078125 -8.015625 L 2.546875 -8.015625 L 6.09375 -1.3125 L 6.09375 -8.015625 L 7.15625 -8.015625 L 7.15625 0 L 5.6875 0 L 2.125 -6.703125 L 2.125 0 L 1.078125 0 Z M 1.078125 -8.015625 "/>
</symbol>
<symbol overflow="visible" id="glyph0-3">
<path style="stroke:none;" d="M 1.078125 -8.015625 L 5.6875 -8.015625 L 5.6875 -7.109375 L 2.171875 -7.109375 L 2.171875 -4.75 L 5.34375 -4.75 L 5.34375 -3.828125 L 2.171875 -3.828125 L 2.171875 0 L 1.078125 0 Z M 1.078125 -8.015625 "/>
</symbol>
<symbol overflow="visible" id="glyph0-4">
<path style="stroke:none;" d="M 1.078125 -8.015625 L 2.171875 -8.015625 L 2.171875 -4.734375 L 6.109375 -4.734375 L 6.109375 -8.015625 L 7.1875 -8.015625 L 7.1875 0 L 6.109375 0 L 6.109375 -3.8125 L 2.171875 -3.8125 L 2.171875 0 L 1.078125 0 Z M 1.078125 -8.015625 "/>
</symbol>
</g>
</defs>
<g id="surface52857">
<rect x="0" y="0" width="300" height="300" style="fill:rgb(100%,100%,100%);fill-opacity:1;stroke:none;"/>
<path style="fill:none;stroke-width:1.2;stroke-linecap:butt;stroke-linejoin:miter;stroke:rgb(0%,0%,0%);stroke-opacity:1;stroke-miterlimit:10;" d="M 59.722656 71.832031 L 67.683594 83.492188 "/>
<path style="fill:none;stroke-width:1.2;stroke-linecap:butt;stroke-linejoin:miter;stroke:rgb(100%,0%,0%);stroke-opacity:1;stroke-miterlimit:10;" d="M 67.683594 83.492188 L 75.644531 95.152344 "/>
<path style="fill:none;stroke-width:1.2;stroke-linecap:butt;stroke-linejoin:miter;stroke:rgb(100%,0%,0%);stroke-opacity:1;stroke-miterlimit:10;" d="M 75.644531 95.152344 L 69.527344 107.878906 "/>
<path style="fill:none;stroke-width:1.2;stroke-linecap:butt;stroke-linejoin:miter;stroke:rgb(0%,0%,0%);stroke-opacity:1;stroke-miterlimit:10;" d="M 69.527344 107.878906 L 63.410156 120.601562 "/>
<path style=" stroke:none;fill-rule:nonzero;fill:rgb(100%,100%,100%);fill-opacity:1;" d="M 71.644531 88.652344 L 80.644531 88.652344 L 80.644531 101.652344 L 71.644531 101.652344 Z M 71.644531 88.652344 "/>
<g style="fill:rgb(100%,0%,0%);fill-opacity:1;">
  <use xlink:href="#glyph0-1" x="71.644531" y="98.553711"/>
</g>
<path style="fill:none;stroke-width:1.2;stroke-linecap:butt;stroke-linejoin:miter;stroke:rgb(0%,0%,0%);stroke-opacity:1;stroke-miterlimit:10;" d="M 63.160156 117.289062 L 49.078125 118.355469 "/>
<path style="fill:none;stroke-width:1.2;stroke-linecap:butt;stroke-linejoin:miter;stroke:rgb(100%,0%,0%);stroke-opacity:1;stroke-miterlimit:10;" d="M 49.078125 118.355469 L 35 119.417969 "/>
<path style="fill:none;stroke-width:1.2;stroke-linecap:butt;stroke-linejoin:miter;stroke:rgb(0%,0%,0%);stroke-opacity:1;stroke-miterlimit:10;" d="M 63.660156 123.917969 L 49.578125 124.980469 "/>
<path style="fill:none;stroke-width:1.2;stroke-linecap:butt;stroke-linejoin:miter;stroke:rgb(100%,0%,0%);stroke-opacity:1;stroke-miterlimit:10;" d="M 49.578125 124.980469 L 35.5 126.046875 "/>
<path style=" stroke:none;fill-rule:nonzero;fill:rgb(0%,0%,0%);fill-opacity:1;" d="M 79.332031 143.925781 L 67.523438 117.792969 L 59.292969 123.414062 Z M 79.332031 143.925781 "/>
<path style=" stroke:none;fill-rule:nonzero;fill:rgb(100%,100%,100%);fill-opacity:1;" d="M 26.25 116.234375 L 35.25 116.234375 L 35.25 129.234375 L 26.25 129.234375 Z M 26.25 116.234375 "/>
<g style="fill:rgb(100%,0%,0%);fill-opacity:1;">
  <use xlink:href="#glyph0-1" x="26.25" y="126.135742"/>
</g>
<path style="fill:none;stroke-width:1.2;stroke-linecap:butt;stroke-linejoin:miter;stroke:rgb(0%,0%,0%);stroke-opacity:1;stroke-miterlimit:10;" d="M 79.332031 143.925781 L 69.824219 170.515625 "/>
<path style="fill:none;stroke-width:1.2;stroke-linecap:butt;stroke-linejoin:miter;stroke:rgb(0%,0%,100%);stroke-opacity:1;stroke-miterlimit:10;" d="M 107.558594 144.75 L 93.445312 144.335938 "/>
<path style="fill:none;stroke-width:1.2;stroke-linecap:butt;stroke-linejoin:miter;stroke:rgb(0%,0%,0%);stroke-opacity:1;stroke-miterlimit:10;" d="M 93.445312 144.335938 L 79.332031 143.925781 "/>
<path style="fill:none;stroke-width:1;stroke-linecap:butt;stroke-linejoin:miter;stroke:rgb(0%,0%,0%);stroke-opacity:1;stroke-miterlimit:10;" d="M 92.175781 187.773438 L 92.175781 187.773438 M 90.15625 185.558594 L 89.519531 186.382812 M 88.136719 183.339844 L 86.859375 184.988281 M 86.117188 181.121094 L 84.203125 183.597656 M 84.097656 178.902344 L 81.546875 182.203125 M 82.078125 176.683594 L 78.890625 180.808594 M 80.058594 174.464844 L 76.234375 179.417969 M 78.039062 172.246094 L 73.578125 178.023438 M 76.019531 170.027344 L 70.917969 176.628906 M 73.996094 167.808594 L 68.261719 175.238281 M 72.871094 166.570312 L 66.777344 174.460938 "/>
<path style="fill:none;stroke-width:1.2;stroke-linecap:butt;stroke-linejoin:miter;stroke:rgb(0%,0%,0%);stroke-opacity:1;stroke-miterlimit:10;" d="M 92.175781 187.773438 L 94.304688 215.933594 "/>
<path style="fill:none;stroke-width:1.2;stroke-linecap:butt;stroke-linejoin:miter;stroke:rgb(0%,0%,0%);stroke-opacity:1;stroke-miterlimit:10;" d="M 115.496094 171.851562 L 92.175781 187.773438 "/>
<path style="fill:none;stroke-width:1.2;stroke-linecap:butt;stroke-linejoin:miter;stroke:rgb(0%,0%,0%);stroke-opacity:1;stroke-miterlimit:10;" d="M 94.304688 215.933594 L 119.753906 228.167969 "/>
<path style="fill:none;stroke-width:1.2;stroke-linecap:butt;stroke-linejoin:miter;stroke:rgb(0%,0%,0%);stroke-opacity:1;stroke-miterlimit:10;" d="M 119.753906 228.167969 L 143.078125 212.246094 "/>
<path style="fill:none;stroke-width:1.2;stroke-linecap:butt;stroke-linejoin:miter;stroke:rgb(0%,0%,0%);stroke-opacity:1;stroke-miterlimit:10;" d="M 143.078125 212.246094 L 140.949219 184.085938 "/>
<path style=" stroke:none;fill-rule:nonzero;fill:rgb(0%,0%,0%);fill-opacity:1;" d="M 143.078125 212.246094 L 166.367188 228.972656 L 170.6875 219.988281 Z M 143.078125 212.246094 "/>
<path style="fill:none;stroke-width:1;stroke-linecap:butt;stroke-linejoin:miter;stroke:rgb(0%,0%,0%);stroke-opacity:1;stroke-miterlimit:10;" d="M 115.496094 171.851562 L 115.496094 171.851562 M 117.933594 173.601562 L 118.386719 172.660156 M 120.371094 175.351562 L 121.273438 173.472656 M 122.808594 177.101562 L 124.164062 174.28125 M 125.242188 178.851562 L 127.050781 175.09375 M 127.679688 180.601562 L 129.9375 175.902344 M 130.117188 182.351562 L 132.828125 176.710938 M 132.554688 184.101562 L 135.714844 177.523438 M 134.992188 185.851562 L 138.605469 178.332031 M 137.425781 187.601562 L 141.492188 179.144531 M 138.789062 188.578125 L 143.105469 179.597656 "/>
<path style="fill:none;stroke-width:1.2;stroke-linecap:butt;stroke-linejoin:miter;stroke:rgb(0%,0%,0%);stroke-opacity:1;stroke-miterlimit:10;" d="M 115.496094 171.851562 L 111.527344 158.300781 "/>
<path style="fill:none;stroke-width:1.2;stroke-linecap:butt;stroke-linejoin:miter;stroke:rgb(0%,0%,100%);stroke-opacity:1;stroke-miterlimit:10;" d="M 111.527344 158.300781 L 107.558594 144.75 "/>
<path style="fill:none;stroke-width:1.2;stroke-linecap:butt;stroke-linejoin:miter;stroke:rgb(0%,0%,100%);stroke-opacity:1;stroke-miterlimit:10;" d="M 107.558594 144.75 L 116.1875 133.574219 "/>
<path style="fill:none;stroke-width:1.2;stroke-linecap:butt;stroke-linejoin:miter;stroke:rgb(0%,0%,0%);stroke-opacity:1;stroke-miterlimit:10;" d="M 116.1875 133.574219 L 124.820312 122.398438 "/>
<path style=" stroke:none;fill-rule:nonzero;fill:rgb(100%,100%,100%);fill-opacity:1;" d="M 103.558594 138.25 L 111.558594 138.25 L 111.558594 151.25 L 103.558594 151.25 Z M 103.558594 138.25 "/>
<g style="fill:rgb(0%,0%,100%);fill-opacity:1;">
  <use xlink:href="#glyph0-2" x="103.558594" y="148.151367"/>
</g>
<path style="fill:none;stroke-width:1.2;stroke-linecap:butt;stroke-linejoin:miter;stroke:rgb(0%,0%,0%);stroke-opacity:1;stroke-miterlimit:10;" d="M 124.820312 122.398438 L 152.804688 126.171875 "/>
<path style="fill:none;stroke-width:1.2;stroke-linecap:butt;stroke-linejoin:miter;stroke:rgb(0%,0%,0%);stroke-opacity:1;stroke-miterlimit:10;" d="M 152.804688 126.171875 L 163.53125 152.292969 "/>
<path style="fill:none;stroke-width:1.2;stroke-linecap:butt;stroke-linejoin:miter;stroke:rgb(0%,0%,0%);stroke-opacity:1;stroke-miterlimit:10;" d="M 160.023438 126.261719 L 168.605469 147.160156 "/>
<path style="fill:none;stroke-width:1.2;stroke-linecap:butt;stroke-linejoin:miter;stroke:rgb(0%,0%,0%);stroke-opacity:1;stroke-miterlimit:10;" d="M 170.066406 103.820312 L 152.804688 126.171875 "/>
<path style="fill:none;stroke-width:1.2;stroke-linecap:butt;stroke-linejoin:miter;stroke:rgb(0%,0%,0%);stroke-opacity:1;stroke-miterlimit:10;" d="M 163.53125 152.292969 L 191.519531 156.066406 "/>
<path style="fill:none;stroke-width:1.2;stroke-linecap:butt;stroke-linejoin:miter;stroke:rgb(0%,0%,0%);stroke-opacity:1;stroke-miterlimit:10;" d="M 191.519531 156.066406 L 208.777344 133.714844 "/>
<path style="fill:none;stroke-width:1.2;stroke-linecap:butt;stroke-linejoin:miter;stroke:rgb(0%,0%,0%);stroke-opacity:1;stroke-miterlimit:10;" d="M 187.984375 149.769531 L 201.792969 131.890625 "/>
<path style="fill:none;stroke-width:1.2;stroke-linecap:butt;stroke-linejoin:miter;stroke:rgb(0%,0%,0%);stroke-opacity:1;stroke-miterlimit:10;" d="M 208.777344 133.714844 L 198.050781 107.59375 "/>
<path style="fill:none;stroke-width:1.2;stroke-linecap:butt;stroke-linejoin:miter;stroke:rgb(0%,0%,0%);stroke-opacity:1;stroke-miterlimit:10;" d="M 208.777344 133.714844 L 236.765625 137.488281 "/>
<path style="fill:none;stroke-width:1.2;stroke-linecap:butt;stroke-linejoin:miter;stroke:rgb(0%,0%,0%);stroke-opacity:1;stroke-miterlimit:10;" d="M 198.050781 107.59375 L 170.066406 103.820312 "/>
<path style="fill:none;stroke-width:1.2;stroke-linecap:butt;stroke-linejoin:miter;stroke:rgb(0%,0%,0%);stroke-opacity:1;stroke-miterlimit:10;" d="M 194.363281 113.800781 L 171.976562 110.785156 "/>
<path style="fill:none;stroke-width:1.2;stroke-linecap:butt;stroke-linejoin:miter;stroke:rgb(0%,0%,0%);stroke-opacity:1;stroke-miterlimit:10;" d="M 236.765625 137.488281 L 250.757812 139.375 "/>
<path style="fill:none;stroke-width:1.2;stroke-linecap:butt;stroke-linejoin:miter;stroke:rgb(20%,80%,80%);stroke-opacity:1;stroke-miterlimit:10;" d="M 250.757812 139.375 L 264.75 141.257812 "/>
<path style="fill:none;stroke-width:1.2;stroke-linecap:butt;stroke-linejoin:miter;stroke:rgb(0%,0%,0%);stroke-opacity:1;stroke-miterlimit:10;" d="M 236.765625 137.488281 L 234.878906 151.480469 "/>
<path style="fill:none;stroke-width:1.2;stroke-linecap:butt;stroke-linejoin:miter;stroke:rgb(20%,80%,80%);stroke-opacity:1;stroke-miterlimit:10;" d="M 234.878906 151.480469 L 232.992188 165.472656 "/>
<path style="fill:none;stroke-width:1.2;stroke-linecap:butt;stroke-linejoin:miter;stroke:rgb(0%,0%,0%);stroke-opacity:1;stroke-miterlimit:10;" d="M 236.765625 137.488281 L 238.648438 123.496094 "/>
<path style="fill:none;stroke-width:1.2;stroke-linecap:butt;stroke-linejoin:miter;stroke:rgb(20%,80%,80%);stroke-opacity:1;stroke-miterlimit:10;" d="M 238.648438 123.496094 L 240.535156 109.5 "/>
<path style=" stroke:none;fill-rule:nonzero;fill:rgb(100%,100%,100%);fill-opacity:1;" d="M 261.75 134.757812 L 268.75 134.757812 L 268.75 147.757812 L 261.75 147.757812 Z M 261.75 134.757812 "/>
<g style="fill:rgb(20%,80%,80%);fill-opacity:1;">
  <use xlink:href="#glyph0-3" x="261.75" y="144.65918"/>
</g>
<path style=" stroke:none;fill-rule:nonzero;fill:rgb(100%,100%,100%);fill-opacity:1;" d="M 229.992188 158.972656 L 236.992188 158.972656 L 236.992188 171.972656 L 229.992188 171.972656 Z M 229.992188 158.972656 "/>
<g style="fill:rgb(20%,80%,80%);fill-opacity:1;">
  <use xlink:href="#glyph0-3" x="229.992188" y="168.874023"/>
</g>
<path style=" stroke:none;fill-rule:nonzero;fill:rgb(100%,100%,100%);fill-opacity:1;" d="M 237.535156 103 L 244.535156 103 L 244.535156 116 L 237.535156 116 Z M 237.535156 103 "/>
<g style="fill:rgb(20%,80%,80%);fill-opacity:1;">
  <use xlink:href="#glyph0-3" x="237.535156" y="112.901367"/>
</g>
<path style=" stroke:none;fill-rule:nonzero;fill:rgb(100%,100%,100%);fill-opacity:1;" d="M 160.527344 217.980469 L 177.527344 217.980469 L 177.527344 230.980469 L 160.527344 230.980469 Z M 160.527344 217.980469 "/>
<g style="fill:rgb(100%,0%,0%);fill-opacity:1;">
  <use xlink:href="#glyph0-1" x="160.527344" y="227.881836"/>
  <use xlink:href="#glyph0-4" x="168.927734" y="227.881836"/>
</g>
</g>
</svg>

<svg xmlns="http://www.w3.org/2000/svg" xmlns:xlink="http://www.w3.org/1999/xlink" width="300pt" height="300pt" viewBox="0 0 300 300"><defs><symbol overflow="visible"><path d="M.547 1.938V-7.75h5.5v9.688zm.625-.61h4.266v-8.47H1.171zm0 0"/></symbol><symbol overflow="visible" id="a"><path d="M4.328-7.28c-.78 0-1.406.296-1.875.89-.46.585-.687 1.382-.687 2.39 0 1.012.226 1.813.687 2.406.47.586 1.094.875 1.875.875.79 0 1.414-.288 1.875-.874.457-.593.688-1.394.688-2.406 0-1.008-.23-1.805-.687-2.39-.46-.594-1.086-.89-1.875-.89zm0-.892c1.125 0 2.024.383 2.703 1.14C7.708-6.28 8.048-5.27 8.048-4c0 1.262-.34 2.273-1.016 3.03C6.353-.22 5.454.157 4.33.157S2.3-.22 1.625-.97c-.668-.75-1-1.757-1-3.03 0-1.27.332-2.28 1-3.03.676-.76 1.578-1.142 2.703-1.142zm0 0"/></symbol><symbol overflow="visible" id="b"><path d="M1.078-8.016h1.47l3.546 6.704v-6.704h1.062V0H5.688L2.124-6.703V0H1.078zm0 0"/></symbol><symbol overflow="visible" id="c"><path d="M1.078-8.016h4.61v.907H2.171v2.36h3.172v.922H2.172V0H1.078zm0 0"/></symbol><symbol overflow="visible" id="d"><path d="M1.078-8.016h1.094v3.282H6.11v-3.282h1.077V0H6.11v-3.813H2.17V0H1.078zm0 0"/></symbol></defs><g><path fill="#fff" d="M0 0h300v300H0z"/><path d="M59.723 71.832l7.96 11.66" stroke-width="1.2" stroke="#000" stroke-miterlimit="10" fill="none"/><path d="M67.684 83.492l7.96 11.66M75.645 95.152l-6.118 12.727" stroke-width="1.2" stroke="#f00" stroke-miterlimit="10" fill="none"/><path d="M69.527 107.88L63.41 120.6" stroke-width="1.2" stroke="#000" stroke-miterlimit="10" fill="none"/><path d="M71.645 88.652h9v13h-9zm0 0" fill="#fff"/><use xlink:href="#a" x="71.645" y="98.554" fill="#f00"/><path d="M63.16 117.29l-14.082 1.065" stroke-width="1.2" stroke="#000" stroke-miterlimit="10" fill="none"/><path d="M49.078 118.355L35 119.418" stroke-width="1.2" stroke="#f00" stroke-miterlimit="10" fill="none"/><path d="M63.66 123.918l-14.082 1.062" stroke-width="1.2" stroke="#000" stroke-miterlimit="10" fill="none"/><path d="M49.578 124.98L35.5 126.047" stroke-width="1.2" stroke="#f00" stroke-miterlimit="10" fill="none"/><path d="M79.332 143.926l-11.81-26.133-8.23 5.62zm0 0"/><path d="M26.25 116.234h9v13h-9zm0 0" fill="#fff"/><use xlink:href="#a" x="26.25" y="126.136" fill="#f00"/><path d="M79.332 143.926l-9.508 26.59" stroke-width="1.2" stroke="#000" stroke-miterlimit="10" fill="none"/><path d="M107.56 144.75l-14.115-.414" stroke-width="1.2" stroke="#00f" stroke-miterlimit="10" fill="none"/><path d="M93.445 144.336l-14.113-.41" stroke-width="1.2" stroke="#000" stroke-miterlimit="10" fill="none"/><path d="M92.176 187.773m-2.02-2.214l-.636.823m-1.383-3.043l-1.278 1.648m-.743-3.867l-1.914 2.478m-.105-4.696l-2.55 3.3m.53-5.518l-3.187 4.125m1.17-6.345l-3.826 4.953m1.805-7.172l-4.462 5.777m2.442-7.996l-5.102 6.602m3.078-8.82l-5.734 7.428m4.61-8.668l-6.095 7.89" stroke="#000" stroke-miterlimit="10" fill="none"/><path d="M92.176 187.773l2.13 28.16M115.496 171.852l-23.32 15.92M94.305 215.934l25.45 12.234M119.754 228.168l23.324-15.922M143.078 212.246l-2.13-28.16" stroke-width="1.2" stroke="#000" stroke-miterlimit="10" fill="none"/><path d="M143.078 212.246l23.29 16.727 4.32-8.985zm0 0"/><path d="M115.496 171.852m2.438 1.75l.453-.942m1.984 2.692l.903-1.88m1.536 3.63l1.354-2.82m1.078 4.57l1.81-3.758m.628 5.508l2.257-4.7m.18 6.45l2.71-5.64m-.272 7.39l3.16-6.58m-.723 8.33l3.613-7.52m-1.18 9.27l4.067-8.457m-2.703 9.433l4.315-8.98" stroke="#000" stroke-miterlimit="10" fill="none"/><path d="M115.496 171.852l-3.97-13.55" stroke-width="1.2" stroke="#000" stroke-miterlimit="10" fill="none"/><path d="M111.527 158.3l-3.968-13.55M107.56 144.75l8.627-11.176" stroke-width="1.2" stroke="#00f" stroke-miterlimit="10" fill="none"/><path d="M116.188 133.574l8.632-11.176" stroke-width="1.2" stroke="#000" stroke-miterlimit="10" fill="none"/><path d="M103.56 138.25h8v13h-8zm0 0" fill="#fff"/><use xlink:href="#b" x="103.559" y="148.151" fill="#00f"/><path d="M124.82 122.398l27.985 3.774M152.805 126.172l10.726 26.12M160.023 126.262l8.582 20.898M170.066 103.82l-17.26 22.352M163.53 152.293l27.99 3.773M191.52 156.066l17.257-22.35M187.984 149.77l13.81-17.88M208.777 133.715l-10.726-26.12M208.777 133.715l27.99 3.773M198.05 107.594l-27.984-3.774M194.363 113.8l-22.386-3.015M236.766 137.488l13.992 1.887" stroke-width="1.2" stroke="#000" stroke-miterlimit="10" fill="none"/><path d="M250.758 139.375l13.992 1.883" stroke-width="1.2" stroke="#3cc" stroke-miterlimit="10" fill="none"/><path d="M236.766 137.488l-1.887 13.992" stroke-width="1.2" stroke="#000" stroke-miterlimit="10" fill="none"/><path d="M234.88 151.48l-1.888 13.993" stroke-width="1.2" stroke="#3cc" stroke-miterlimit="10" fill="none"/><path d="M236.766 137.488l1.882-13.992" stroke-width="1.2" stroke="#000" stroke-miterlimit="10" fill="none"/><path d="M238.648 123.496l1.887-13.996" stroke-width="1.2" stroke="#3cc" stroke-miterlimit="10" fill="none"/><path d="M261.75 134.758h7v13h-7zm0 0" fill="#fff"/><use xlink:href="#c" x="261.75" y="144.659" fill="#3cc"/><path d="M229.992 158.973h7v13h-7zm0 0" fill="#fff"/><use xlink:href="#c" x="229.992" y="168.874" fill="#3cc"/><path d="M237.535 103h7v13h-7zm0 0" fill="#fff"/><use xlink:href="#c" x="237.535" y="112.901" fill="#3cc"/><path d="M160.527 217.98h17v13h-17zm0 0" fill="#fff"/><g fill="#f00"><use xlink:href="#a" x="160.527" y="227.882"/><use xlink:href="#d" x="168.928" y="227.882"/></g></g></svg>
